icon/gr/compare.svg

<svg xmlns="http://www.w3.org/2000/svg" viewBox="0 0 24 24" height="1em" width="1em">
  <path fill="none" stroke="#000" stroke-width="2" d="M11,7 L1,7 L1,17 L7,17 L7,8 M10.9997,5 L10.9997,9 L12.9997,7 L10.9997,5 Z M10.9999,16.99965 L12.9999,18.9994 L12.9999,14.9994 L10.9999,16.99965 Z M13,17 L23,17 L23,7 L17,7 L17,16"/>
</svg>

<svg xmlns="http://www.w3.org/2000/svg" width="24" height="24"><path fill="none" stroke="#000" stroke-width="2" d="M11 7H1v10h6V8m4-3v4l2-2-2-2Zm0 12 2 2v-4l-2 2Zm2 0h10V7h-6v9"/></svg>
